lib/flags/gl-greenland.svg

<svg xmlns="http://www.w3.org/2000/svg" fill="none" aria-hidden="true" viewBox="0 0 42 30"><g id="Country=GL - Greenland, Size=sm (36x24)" filter="url(#filter0_dd_91_28058)"><g clip-path="url(#clip0_91_28058)"><g id="flag"><mask id="mask0_91_28058" width="36" height="24" x="3" y="2" maskUnits="userSpaceOnUse" style="mask-type:alpha"><rect id="mask" width="36" height="24" x="3" y="2" fill="white"/></mask><g mask="url(#mask0_91_28058)"><g id="contents"><g id="bottom"><path id="bottom_2" fill="#C51918" fill-rule="evenodd" d="M3 14H39V26H3V14Z" clip-rule="evenodd"/><mask id="mask1_91_28058" width="36" height="12" x="3" y="14" maskUnits="userSpaceOnUse" style="mask-type:alpha"><path id="bottom_3" fill="white" fill-rule="evenodd" d="M3 14H39V26H3V14Z" clip-rule="evenodd"/></mask><g mask="url(#mask1_91_28058)"><path id="circle" fill="#F7FCFF" fill-rule="evenodd" d="M16.5 22C21.4706 22 25.5 18.4183 25.5 14C25.5 9.58172 21.4706 6 16.5 6C11.5294 6 7.5 9.58172 7.5 14C7.5 18.4183 11.5294 22 16.5 22Z" clip-rule="evenodd"/></g></g><g id="top"><path id="top_2" fill="#F7FCFF" fill-rule="evenodd" d="M3 2H39V14H3V2Z" clip-rule="evenodd"/><mask id="mask2_91_28058" width="36" height="12" x="3" y="2" maskUnits="userSpaceOnUse" style="mask-type:alpha"><path id="top_3" fill="white" fill-rule="evenodd" d="M3 2H39V14H3V2Z" clip-rule="evenodd"/></mask><g mask="url(#mask2_91_28058)"><path id="circle_2" fill="#C51918" fill-rule="evenodd" d="M16.5 22C21.4706 22 25.5 18.4183 25.5 14C25.5 9.58172 21.4706 6 16.5 6C11.5294 6 7.5 9.58172 7.5 14C7.5 18.4183 11.5294 22 16.5 22Z" clip-rule="evenodd"/></g></g></g></g></g></g></g><defs><filter id="filter0_dd_91_28058" width="42" height="30" x="0" y="0" color-interpolation-filters="sRGB" filterUnits="userSpaceOnUse"><feFlood flood-opacity="0" result="BackgroundImageFix"/><feColorMatrix in="SourceAlpha" result="hardAlpha" values="0 0 0 0 0 0 0 0 0 0 0 0 0 0 0 0 0 0 127 0"/><feOffset dy="1"/><feGaussianBlur stdDeviation="1"/><feColorMatrix values="0 0 0 0 0.0627451 0 0 0 0 0.0941176 0 0 0 0 0.156863 0 0 0 0.06 0"/><feBlend in2="BackgroundImageFix" result="effect1_dropShadow_91_28058"/><feColorMatrix in="SourceAlpha" result="hardAlpha" values="0 0 0 0 0 0 0 0 0 0 0 0 0 0 0 0 0 0 127 0"/><feOffset dy="1"/><feGaussianBlur stdDeviation="1.5"/><feColorMatrix values="0 0 0 0 0.0627451 0 0 0 0 0.0941176 0 0 0 0 0.156863 0 0 0 0.1 0"/><feBlend in2="effect1_dropShadow_91_28058" result="effect2_dropShadow_91_28058"/><feBlend in="SourceGraphic" in2="effect2_dropShadow_91_28058" result="shape"/></filter><clipPath id="clip0_91_28058"><rect width="36" height="24" x="3" y="2" fill="white" rx="2"/></clipPath></defs></svg>

<svg xmlns="http://www.w3.org/2000/svg" fill="none" aria-hidden="true" viewBox="0 0 42 30"><g filter="url(#a)"><g clip-path="url(#b)"><mask id="c" width="36" height="24" x="3" y="2" maskUnits="userSpaceOnUse" style="mask-type:alpha"><path fill="#fff" d="M3 2h36v24H3z"/></mask><g mask="url(#c)"><path fill="#C51918" fill-rule="evenodd" d="M3 14h36v12H3V14Z" clip-rule="evenodd"/><mask id="d" width="36" height="12" x="3" y="14" maskUnits="userSpaceOnUse" style="mask-type:alpha"><path fill="#fff" fill-rule="evenodd" d="M3 14h36v12H3V14Z" clip-rule="evenodd"/></mask><g mask="url(#d)"><path fill="#F7FCFF" fill-rule="evenodd" d="M16.5 22c4.97 0 9-3.582 9-8s-4.03-8-9-8-9 3.582-9 8 4.03 8 9 8Z" clip-rule="evenodd"/></g><path fill="#F7FCFF" fill-rule="evenodd" d="M3 2h36v12H3V2Z" clip-rule="evenodd"/><mask id="e" width="36" height="12" x="3" y="2" maskUnits="userSpaceOnUse" style="mask-type:alpha"><path fill="#fff" fill-rule="evenodd" d="M3 2h36v12H3V2Z" clip-rule="evenodd"/></mask><g mask="url(#e)"><path fill="#C51918" fill-rule="evenodd" d="M16.5 22c4.97 0 9-3.582 9-8s-4.03-8-9-8-9 3.582-9 8 4.03 8 9 8Z" clip-rule="evenodd"/></g></g></g></g><defs><clipPath id="b"><rect width="36" height="24" x="3" y="2" fill="#fff" rx="2"/></clipPath><filter id="a" width="42" height="30" x="0" y="0" color-interpolation-filters="sRGB" filterUnits="userSpaceOnUse"><feFlood flood-opacity="0" result="BackgroundImageFix"/><feColorMatrix in="SourceAlpha" result="hardAlpha" values="0 0 0 0 0 0 0 0 0 0 0 0 0 0 0 0 0 0 127 0"/><feOffset dy="1"/><feGaussianBlur stdDeviation="1"/><feColorMatrix values="0 0 0 0 0.0627451 0 0 0 0 0.0941176 0 0 0 0 0.156863 0 0 0 0.06 0"/><feBlend in2="BackgroundImageFix" result="effect1_dropShadow_91_28058"/><feColorMatrix in="SourceAlpha" result="hardAlpha" values="0 0 0 0 0 0 0 0 0 0 0 0 0 0 0 0 0 0 127 0"/><feOffset dy="1"/><feGaussianBlur stdDeviation="1.5"/><feColorMatrix values="0 0 0 0 0.0627451 0 0 0 0 0.0941176 0 0 0 0 0.156863 0 0 0 0.1 0"/><feBlend in2="effect1_dropShadow_91_28058" result="effect2_dropShadow_91_28058"/><feBlend in="SourceGraphic" in2="effect2_dropShadow_91_28058" result="shape"/></filter></defs></svg>
